src/icons/add_block.svg

<svg xmlns="http://www.w3.org/2000/svg" xmlns:xlink="http://www.w3.org/1999/xlink" viewBox="0 0 640 640" width="32" height="32"><defs><path d="M10.89 11.88h320v320h-320v-320z" id="a"/><path d="M507.26 301.21l.22.02.21.03.21.04.21.04.2.06.2.06.2.07.19.08.19.08.19.09.18.1.17.11.18.11.16.12.17.12.16.13.15.14.15.14.14.15.13.15.13.16.13.16.12.17.11.17.1.18.1.18.09.19.09.19.08.19.07.2.06.2.05.2.05.21.04.21.03.21.02.21.01.22.01.22v106.67h106.88l.22.02.22.02.21.03.21.04.21.04.2.06.2.06.2.07.19.08.19.08.19.09.18.1.17.11.18.11.16.12.17.12.16.13.15.14.15.14.14.15.13.15.13.16.13.16.12.17.11.17.1.18.1.18.09.19.09.19.08.19.07.2.06.2.05.2.05.21.04.21.03.21.02.21.01.22.01.22v85.33l-.01.22-.01.22-.02.22-.03.21-.04.21-.05.21-.05.2-.06.2-.07.2-.08.19-.09.19-.09.18-.1.19-.1.17-.11.18-.12.16-.13.17-.13.15-.13.16-.14.15-.15.14-.15.13-.16.13-.17.13-.16.12-.18.11-.17.1-.18.1-.19.09-.19.09-.19.08-.2.07-.2.06-.2.05-.21.05-.21.04-.21.03-.22.02-.22.01-.21.01H512.16v106.66l-.01.22-.01.22-.02.22-.03.21-.04.21-.05.21-.05.2-.06.2-.07.2-.08.19-.09.19-.09.18-.1.19-.1.17-.11.18-.12.16-.13.17-.13.15-.13.16-.14.15-.15.14-.15.13-.16.13-.17.13-.16.12-.18.11-.17.1-.18.1-.19.09-.19.09-.19.08-.2.07-.2.06-.2.05-.21.05-.21.04-.21.03-.22.02-.22.01-.21.01h-85.34l-.22-.01-.22-.01-.21-.02-.21-.03-.21-.04-.21-.05-.2-.05-.2-.06-.2-.07-.19-.08-.19-.09-.19-.09-.18-.1-.18-.1-.17-.11-.17-.12-.16-.13-.16-.13-.15-.13-.15-.14-.14-.15-.14-.16-.13-.15-.12-.17-.12-.16-.11-.18-.11-.17-.1-.19-.09-.18-.08-.19-.08-.19-.07-.2-.06-.2-.06-.2-.04-.21-.04-.21-.03-.21-.02-.22-.02-.22V509.19H309.49l-.22-.01-.22-.01-.21-.02-.21-.03-.21-.04-.21-.05-.2-.05-.2-.06-.2-.07-.19-.08-.19-.09-.19-.09-.18-.1-.18-.1-.17-.11-.17-.12-.16-.13-.16-.13-.15-.13-.15-.14-.14-.15-.14-.16-.13-.15-.12-.17-.12-.16-.11-.18-.11-.17-.1-.19-.09-.18-.08-.19-.08-.19-.07-.2-.06-.2-.06-.2-.04-.21-.04-.21-.03-.21-.02-.22-.02-.22V418.3l.02-.22.02-.21.03-.21.04-.21.04-.21.06-.2.06-.2.07-.2.08-.19.08-.19.09-.19.1-.18.11-.18.11-.17.12-.17.12-.16.13-.16.14-.15.14-.15.15-.14.15-.14.16-.13.16-.12.17-.12.17-.11.18-.11.18-.1.19-.09.19-.08.19-.08.2-.07.2-.06.2-.06.21-.04.21-.04.21-.03.21-.02.22-.02h106.89V306.3l.02-.22.02-.21.03-.21.04-.21.04-.21.06-.2.06-.2.07-.2.08-.19.08-.19.09-.19.1-.18.11-.18.11-.17.12-.17.12-.16.13-.16.14-.15.14-.15.15-.14.15-.14.16-.13.16-.12.17-.12.17-.11.18-.11.18-.1.19-.09.19-.08.19-.08.2-.07.2-.06.2-.06.21-.04.21-.04.21-.03.21-.02.22-.02h85.77l.22.02z" id="b"/></defs><use xmlns:xlink="http://www.w3.org/1999/xlink" xlink:href="#a" fill="#fff"/><use xmlns:xlink="http://www.w3.org/1999/xlink" xlink:href="#a" fill-opacity="0" stroke="#000" stroke-width="20"/><g><use xmlns:xlink="http://www.w3.org/1999/xlink" xlink:href="#b" fill="#fff"/><use xmlns:xlink="http://www.w3.org/1999/xlink" xlink:href="#b" fill-opacity="0" stroke="#000" stroke-width="20"/></g></svg>

<svg xmlns="http://www.w3.org/2000/svg" xmlns:xlink="http://www.w3.org/1999/xlink" version="1.1" preserveAspectRatio="xMidYMid meet" viewBox="0 0 640 640" width="32" height="32"><defs><path d="M10.89 11.88L330.89 11.88L330.89 331.88L10.89 331.88L10.89 11.88Z" id="b1pnBrJAbz"/><path d="M507.26 301.21L507.48 301.23L507.69 301.26L507.9 301.3L508.11 301.34L508.31 301.4L508.51 301.46L508.71 301.53L508.9 301.61L509.09 301.69L509.28 301.78L509.46 301.88L509.63 301.99L509.81 302.1L509.97 302.22L510.14 302.34L510.3 302.47L510.45 302.61L510.6 302.75L510.74 302.9L510.87 303.05L511 303.21L511.13 303.37L511.25 303.54L511.36 303.71L511.46 303.89L511.56 304.07L511.65 304.26L511.74 304.45L511.82 304.64L511.89 304.84L511.95 305.04L512 305.24L512.05 305.45L512.09 305.66L512.12 305.87L512.14 306.08L512.15 306.3L512.16 306.52L512.16 413.19L618.83 413.19L619.04 413.19L619.26 413.21L619.48 413.23L619.69 413.26L619.9 413.3L620.11 413.34L620.31 413.4L620.51 413.46L620.71 413.53L620.9 413.61L621.09 413.69L621.28 413.78L621.46 413.88L621.63 413.99L621.81 414.1L621.97 414.22L622.14 414.34L622.3 414.47L622.45 414.61L622.6 414.75L622.74 414.9L622.87 415.05L623 415.21L623.13 415.37L623.25 415.54L623.36 415.71L623.46 415.89L623.56 416.07L623.65 416.26L623.74 416.45L623.82 416.64L623.89 416.84L623.95 417.04L624 417.24L624.05 417.45L624.09 417.66L624.12 417.87L624.14 418.08L624.15 418.3L624.16 418.52L624.16 503.85L624.15 504.07L624.14 504.29L624.12 504.51L624.09 504.72L624.05 504.93L624 505.14L623.95 505.34L623.89 505.54L623.82 505.74L623.74 505.93L623.65 506.12L623.56 506.3L623.46 506.49L623.36 506.66L623.25 506.84L623.13 507L623 507.17L622.87 507.32L622.74 507.48L622.6 507.63L622.45 507.77L622.3 507.9L622.14 508.03L621.97 508.16L621.81 508.28L621.63 508.39L621.46 508.49L621.28 508.59L621.09 508.68L620.9 508.77L620.71 508.85L620.51 508.92L620.31 508.98L620.11 509.03L619.9 509.08L619.69 509.12L619.48 509.15L619.26 509.17L619.04 509.18L618.83 509.19L512.16 509.19L512.16 615.85L512.15 616.07L512.14 616.29L512.12 616.51L512.09 616.72L512.05 616.93L512 617.14L511.95 617.34L511.89 617.54L511.82 617.74L511.74 617.93L511.65 618.12L511.56 618.3L511.46 618.49L511.36 618.66L511.25 618.84L511.13 619L511 619.17L510.87 619.32L510.74 619.48L510.6 619.63L510.45 619.77L510.3 619.9L510.14 620.03L509.97 620.16L509.81 620.28L509.63 620.39L509.46 620.49L509.28 620.59L509.09 620.68L508.9 620.77L508.71 620.85L508.51 620.92L508.31 620.98L508.11 621.03L507.9 621.08L507.69 621.12L507.48 621.15L507.26 621.17L507.04 621.18L506.83 621.19L421.49 621.19L421.27 621.18L421.05 621.17L420.84 621.15L420.63 621.12L420.42 621.08L420.21 621.03L420.01 620.98L419.81 620.92L419.61 620.85L419.42 620.77L419.23 620.68L419.04 620.59L418.86 620.49L418.68 620.39L418.51 620.28L418.34 620.16L418.18 620.03L418.02 619.9L417.87 619.77L417.72 619.63L417.58 619.48L417.44 619.32L417.31 619.17L417.19 619L417.07 618.84L416.96 618.66L416.85 618.49L416.75 618.3L416.66 618.12L416.58 617.93L416.5 617.74L416.43 617.54L416.37 617.34L416.31 617.14L416.27 616.93L416.23 616.72L416.2 616.51L416.18 616.29L416.16 616.07L416.16 615.85L416.16 509.19L309.49 509.19L309.27 509.18L309.05 509.17L308.84 509.15L308.63 509.12L308.42 509.08L308.21 509.03L308.01 508.98L307.81 508.92L307.61 508.85L307.42 508.77L307.23 508.68L307.04 508.59L306.86 508.49L306.68 508.39L306.51 508.28L306.34 508.16L306.18 508.03L306.02 507.9L305.87 507.77L305.72 507.63L305.58 507.48L305.44 507.32L305.31 507.17L305.19 507L305.07 506.84L304.96 506.66L304.85 506.49L304.75 506.3L304.66 506.12L304.58 505.93L304.5 505.74L304.43 505.54L304.37 505.34L304.31 505.14L304.27 504.93L304.23 504.72L304.2 504.51L304.18 504.29L304.16 504.07L304.16 503.85L304.16 418.52L304.16 418.3L304.18 418.08L304.2 417.87L304.23 417.66L304.27 417.45L304.31 417.24L304.37 417.04L304.43 416.84L304.5 416.64L304.58 416.45L304.66 416.26L304.75 416.07L304.85 415.89L304.96 415.71L305.07 415.54L305.19 415.37L305.31 415.21L305.44 415.05L305.58 414.9L305.72 414.75L305.87 414.61L306.02 414.47L306.18 414.34L306.34 414.22L306.51 414.1L306.68 413.99L306.86 413.88L307.04 413.78L307.23 413.69L307.42 413.61L307.61 413.53L307.81 413.46L308.01 413.4L308.21 413.34L308.42 413.3L308.63 413.26L308.84 413.23L309.05 413.21L309.27 413.19L309.49 413.19L416.16 413.19L416.16 306.52L416.16 306.3L416.18 306.08L416.2 305.87L416.23 305.66L416.27 305.45L416.31 305.24L416.37 305.04L416.43 304.84L416.5 304.64L416.58 304.45L416.66 304.26L416.75 304.07L416.85 303.89L416.96 303.71L417.07 303.54L417.19 303.37L417.31 303.21L417.44 303.05L417.58 302.9L417.72 302.75L417.87 302.61L418.02 302.47L418.18 302.34L418.34 302.22L418.51 302.1L418.68 301.99L418.86 301.88L419.04 301.78L419.23 301.69L419.42 301.61L419.61 301.53L419.81 301.46L420.01 301.4L420.21 301.34L420.42 301.3L420.63 301.26L420.84 301.23L421.05 301.21L421.27 301.19L421.49 301.19L506.83 301.19L507.04 301.19L507.26 301.21Z" id="gxYedDi7e"/></defs><g><g><use xlink:href="#b1pnBrJAbz" opacity="1" fill="#ffffff" fill-opacity="1"/><g><use xlink:href="#b1pnBrJAbz" opacity="1" fill-opacity="0" stroke="#000000" stroke-width="20" stroke-opacity="1"/></g></g><g><use xlink:href="#gxYedDi7e" opacity="1" fill="#ffffff" fill-opacity="1"/><g><use xlink:href="#gxYedDi7e" opacity="1" fill-opacity="0" stroke="#000000" stroke-width="20" stroke-opacity="1"/></g></g></g></svg>
